usr/share/icons/biglinux-icons-material/scalable/places/purple-user-desktop.svg

<?xml version="1.0" encoding="UTF-8" standalone="no"?>
<svg
   width="24"
   height="24"
   viewBox="0 0 24 24"
   fill="none"
   version="1.1"
   id="svg17"
   sodipodi:docname="folder_color_purple_desktop.svg"
   inkscape:version="1.3 (0e150ed6c4, 2023-07-21)"
   xmlns:inkscape="http://www.inkscape.org/namespaces/inkscape"
   xmlns:sodipodi="http://sodipodi.sourceforge.net/DTD/sodipodi-0.dtd"
   xmlns:xlink="http://www.w3.org/1999/xlink"
   xmlns="http://www.w3.org/2000/svg"
   xmlns:svg="http://www.w3.org/2000/svg">
  <sodipodi:namedview
     id="namedview17"
     pagecolor="#ffffff"
     bordercolor="#000000"
     borderopacity="0.25"
     inkscape:showpageshadow="2"
     inkscape:pageopacity="0.0"
     inkscape:pagecheckerboard="0"
     inkscape:deskcolor="#d1d1d1"
     inkscape:zoom="16.895833"
     inkscape:cx="18.140567"
     inkscape:cy="14.53021"
     inkscape:window-width="1280"
     inkscape:window-height="998"
     inkscape:window-x="0"
     inkscape:window-y="0"
     inkscape:window-maximized="0"
     inkscape:current-layer="svg17" />
  <rect
     opacity="0.8125"
     x="1"
     y="1"
     width="22"
     height="22"
     rx="6.6"
     fill="url(#paint0_linear_201_78)"
     id="rect1" />
  <rect
     opacity="0.125"
     x="3"
     y="2.25"
     width="18"
     height="18"
     rx="4.4"
     fill="url(#paint1_linear_201_78)"
     fill-opacity="0.875"
     id="rect2" />
  <rect
     x="3.25"
     y="3.25"
     width="17.5"
     height="17.5"
     rx="4.15"
     fill="#CCCCCC"
     stroke="url(#paint2_linear_201_78)"
     stroke-width="0.5"
     id="rect3" />
  <path
     opacity="0.125"
     d="M1 7.50781C1 5.84664 2.34664 4.5 4.00781 4.5H8.19048C9.265 4.5 10.3068 4.86994 11.1406 5.54762V5.54762C11.9745 6.2253 13.0162 6.59524 14.0908 6.59524H19.9922C21.6534 6.59524 23 7.94188 23 9.60305V15.5C23 19.1451 20.0451 22.1 16.4 22.1H7.6C3.95492 22.1 1 19.1451 1 15.5V7.50781Z"
     fill="url(#paint3_linear_201_78)"
     fill-opacity="0.875"
     id="path3" />
  <g
     opacity="0.875"
     id="g5">
    <path
       d="M1 8.40781C1 6.74664 2.34664 5.4 4.00781 5.4H8.19048C9.265 5.4 10.3068 5.76994 11.1406 6.44762V6.44762C11.9745 7.1253 13.0162 7.49524 14.0908 7.49524H19.9922C21.6534 7.49524 23 8.84188 23 10.5031V16.4C23 20.0451 20.0451 23 16.4 23H7.6C3.95492 23 1 20.0451 1 16.4V8.40781Z"
       fill="url(#paint4_linear_201_78)"
       id="path4" />
    <path
       d="M22.625 10.5031V16.4C22.625 19.838 19.838 22.625 16.4 22.625H7.6C4.16203 22.625 1.375 19.838 1.375 16.4V8.40781C1.375 6.95375 2.55375 5.775 4.00781 5.775H8.19048C9.17886 5.775 10.1371 6.11528 10.9041 6.73863C11.8048 7.47064 12.9301 7.87024 14.0908 7.87024H19.9922C21.4462 7.87024 22.625 9.04899 22.625 10.5031Z"
       stroke="url(#paint5_linear_201_78)"
       stroke-opacity="0.375"
       stroke-width="0.75"
       stroke-linejoin="round"
       id="path5" />
  </g>
  <defs
     id="defs17">
    <linearGradient
       id="paint0_linear_201_78"
       x1="23"
       y1="0.999999"
       x2="1"
       y2="12"
       gradientUnits="userSpaceOnUse">
      <stop
         stop-color="#5361CB"
         id="stop5" />
      <stop
         offset="1"
         stop-color="#2F3B9D"
         id="stop6" />
    </linearGradient>
    <linearGradient
       id="paint1_linear_201_78"
       x1="21"
       y1="4"
       x2="3"
       y2="4"
       gradientUnits="userSpaceOnUse">
      <stop
         stop-opacity="0.5"
         id="stop7" />
      <stop
         offset="0.890123"
         id="stop8" />
      <stop
         offset="1"
         stop-opacity="0"
         id="stop9" />
    </linearGradient>
    <linearGradient
       id="paint2_linear_201_78"
       x1="12"
       y1="3"
       x2="11.5"
       y2="8"
       gradientUnits="userSpaceOnUse">
      <stop
         stop-color="#DDDDDD"
         id="stop10" />
      <stop
         offset="1"
         stop-color="#CCCCCC"
         stop-opacity="0"
         id="stop11" />
    </linearGradient>
    <linearGradient
       id="paint3_linear_201_78"
       x1="23"
       y1="9"
       x2="1.01236"
       y2="9.52141"
       gradientUnits="userSpaceOnUse">
      <stop
         stop-opacity="0.5"
         id="stop12" />
      <stop
         offset="1"
         id="stop13" />
    </linearGradient>
    <linearGradient
       id="paint4_linear_201_78"
       x1="23"
       y1="5.4"
       x2="1.42949"
       y2="23.5115"
       gradientUnits="userSpaceOnUse">
      <stop
         stop-color="#6C7AD8"
         id="stop14" />
      <stop
         offset="1"
         stop-color="#273182"
         id="stop15" />
    </linearGradient>
    <linearGradient
       id="paint5_linear_201_78"
       x1="15"
       y1="5.5"
       x2="5.5"
       y2="19.5"
       gradientUnits="userSpaceOnUse">
      <stop
         stop-color="#97A5FF"
         id="stop16" />
      <stop
         offset="1"
         stop-color="#141E6F"
         id="stop17" />
    </linearGradient>
    <linearGradient
       inkscape:collect="always"
       xlink:href="#a"
       id="linearGradient13451"
       gradientUnits="userSpaceOnUse"
       gradientTransform="matrix(0.17157319,0,0,0.16861445,52.902313,20.057356)"
       x1="-240.47"
       y1="-60.605"
       x2="-240.47"
       y2="-29.025999" />
    <linearGradient
       id="a"
       x1="-240.47"
       x2="-240.47"
       y1="-60.605"
       y2="-29.025999"
       gradientTransform="matrix(0.96667,0,0,0.95,262.45,67.575)"
       gradientUnits="userSpaceOnUse">
      <stop
         stop-color="#4285db"
         offset="0"
         id="stop13351" />
      <stop
         stop-color="#42b9db"
         offset="1"
         id="stop13353" />
    </linearGradient>
    <linearGradient
       inkscape:collect="always"
       xlink:href="#b"
       id="linearGradient13453"
       gradientUnits="userSpaceOnUse"
       gradientTransform="matrix(0.11417,0,0,0.11417,12.077766,102.05934)"
       x1="10.583"
       y1="-184.67999"
       x2="225.69"
       y2="-184.67999" />
    <linearGradient
       id="b"
       x1="10.583"
       x2="225.69"
       y1="-184.67999"
       y2="-184.67999"
       gradientTransform="matrix(0.11417,0,0,0.11417,18.557,59.5)"
       gradientUnits="userSpaceOnUse">
      <stop
         stop-color="#fafbfb"
         offset="0"
         id="stop13356" />
      <stop
         stop-color="#fafbfb"
         stop-opacity="0"
         offset="1"
         id="stop13358" />
    </linearGradient>
    <linearGradient
       inkscape:collect="always"
       xlink:href="#c"
       id="linearGradient13455"
       gradientUnits="userSpaceOnUse"
       gradientTransform="matrix(0.0302,0,0,0.0302,12.077766,102.05934)"
       x1="520"
       y1="-620"
       x2="410"
       y2="-620" />
    <linearGradient
       id="c"
       x1="520"
       x2="410"
       y1="-620"
       y2="-620"
       gradientTransform="matrix(0.0302,0,0,0.0302,18.557,59.5)"
       gradientUnits="userSpaceOnUse">
      <stop
         offset="0"
         id="stop13361" />
      <stop
         stop-opacity="0"
         offset="1"
         id="stop13363" />
    </linearGradient>
  </defs>
  <path
     id="path55"
     style="opacity:0.146;fill:#1a1a1a;stroke-width:0.360396"
     d="M 6.961328,9.387 C 6.484187,9.387 6.1,9.7711872 6.1,10.248328 V 15.887 c 0,0.47714 0.384187,0.861328 0.861328,0.861328 H 9.90664 c -7.9e-4,1.472237 -0.212151,1.47359 -1.267578,2.107422 v 0.423828 h 5.921875 V 18.85575 c -1.055428,-0.633112 -1.268741,-0.634468 -1.269531,-2.107422 h 2.947266 C 16.715812,16.748328 17.1,16.36414 17.1,15.887 V 10.248328 C 17.1,9.7711872 16.715812,9.387 16.238672,9.387 Z" />
  <path
     d="m 12,15.082591 -1.692419,1.269313 c 0,1.480506 -0.211552,1.480506 -1.2689531,2.115524 L 12,18.67862 14.961372,18.467067 C 13.90397,17.83277 13.692418,17.83277 13.692418,16.351544 Z"
     fill="#b3b3b3"
     id="path13325"
     style="stroke-width:0.360396" />
  <path
     d="m 9.0386279,18.467067 v 0.423105 h 5.9231051 v -0.423105 z"
     fill="#cccccc"
     id="path13327"
     style="stroke-width:0.360396" />
  <rect
     x="6.5"
     y="8.9981661"
     width="11"
     height="7.3600903"
     ry="0.86126566"
     fill="#303030"
     id="rect13329"
     style="stroke-width:0.354309"
     rx="0.86126566" />
  <g
     id="g66"
     transform="translate(4.7683716e-7,-0.00148211)">
    <rect
       x="6.8528214"
       y="9.3059692"
       width="10.294356"
       height="6.7445784"
       rx="0.70995563"
       ry="0.69770885"
       fill="url(#a)"
       id="rect13431"
       style="fill:url(#linearGradient13451);stroke-width:0.177488" />
    <g
       id="g14598"
       transform="matrix(0.17743641,0,0,0.17743641,7.472699,0.51720209)">
      <path
         d="m 18.119766,83.934342 14.5,-15.708 12.083,15.708 z"
         fill="#1a1a1a"
         id="path13433" />
      <path
         d="m 17.032766,74.387342 -19.0680003,12.246 c 0.694,0.57 1.57700005,0.926 2.55700005,0.926 H 37.845766 l -20.812,-13.172 z"
         fill="#e6e6e6"
         opacity="0.9"
         id="path13435" />
      <path
         d="m 13.286766,87.559342 3.746,-13.171 20.814,13.171 z"
         fill="#fafbfb"
         id="path13437" />
      <path
         d="m 32.620766,67.018342 -4.834,5.135 v 15.406 h 22.734 c 1.094,0 2.08,-0.43 2.8,-1.125 z"
         fill="#b0b2b5"
         id="path13439" />
      <path
         d="m 32.618766,67.016342 6.043,20.543 h 11.859 c 1.094,0 2.08,-0.43 2.8,-1.125 l -20.701,-19.418 z"
         fill="#ffffff"
         id="path13441" />
      <path
         d="m 13.286766,87.559342 3.746,-13.171 20.814,13.171 z"
         fill="url(#b)"
         id="path13443"
         style="fill:url(#linearGradient13453)" />
      <path
         d="m 26.577766,80.429342 v 7.13 h 1.208 v -6.365 z"
         fill="url(#c)"
         opacity="0.35"
         id="path13445"
         style="fill:url(#linearGradient13455)" />
    </g>
  </g>
</svg>

<svg xmlns="http://www.w3.org/2000/svg" xmlns:xlink="http://www.w3.org/1999/xlink" width="24" height="24" fill="none"><rect width="22" height="22" x="1" y="1" fill="url(#a)" opacity=".813" rx="6.6"/><rect width="18" height="18" x="3" y="2.25" fill="url(#b)" fill-opacity=".875" opacity=".125" rx="4.4"/><rect width="17.5" height="17.5" x="3.25" y="3.25" fill="#CCC" stroke="url(#c)" stroke-width=".5" rx="4.15"/><path fill="url(#d)" fill-opacity=".875" d="M1 7.508A3.008 3.008 0 0 1 4.008 4.5H8.19c1.075 0 2.117.37 2.95 1.048a4.678 4.678 0 0 0 2.95 1.047h5.902A3.008 3.008 0 0 1 23 9.603V15.5a6.6 6.6 0 0 1-6.6 6.6H7.6A6.6 6.6 0 0 1 1 15.5V7.508Z" opacity=".125"/><g opacity=".875"><path fill="url(#e)" d="M1 8.408A3.008 3.008 0 0 1 4.008 5.4H8.19c1.075 0 2.117.37 2.95 1.048a4.678 4.678 0 0 0 2.95 1.047h5.902A3.008 3.008 0 0 1 23 10.503V16.4a6.6 6.6 0 0 1-6.6 6.6H7.6A6.6 6.6 0 0 1 1 16.4V8.408Z"/><path stroke="url(#f)" stroke-linejoin="round" stroke-opacity=".375" stroke-width=".75" d="M22.625 10.503V16.4a6.225 6.225 0 0 1-6.225 6.225H7.6A6.225 6.225 0 0 1 1.375 16.4V8.408a2.633 2.633 0 0 1 2.633-2.633H8.19c.989 0 1.947.34 2.714.964a5.053 5.053 0 0 0 3.187 1.131h5.901a2.633 2.633 0 0 1 2.633 2.633Z"/></g><defs><linearGradient id="a" x1="23" x2="1" y1="1" y2="12" gradientUnits="userSpaceOnUse"><stop stop-color="#5361CB"/><stop offset="1" stop-color="#2F3B9D"/></linearGradient><linearGradient id="b" x1="21" x2="3" y1="4" y2="4" gradientUnits="userSpaceOnUse"><stop stop-opacity=".5"/><stop offset=".89"/><stop offset="1" stop-opacity="0"/></linearGradient><linearGradient id="c" x1="12" x2="11.5" y1="3" y2="8" gradientUnits="userSpaceOnUse"><stop stop-color="#DDD"/><stop offset="1" stop-color="#CCC" stop-opacity="0"/></linearGradient><linearGradient id="d" x1="23" x2="1.012" y1="9" y2="9.521" gradientUnits="userSpaceOnUse"><stop stop-opacity=".5"/><stop offset="1"/></linearGradient><linearGradient id="e" x1="23" x2="1.429" y1="5.4" y2="23.512" gradientUnits="userSpaceOnUse"><stop stop-color="#6C7AD8"/><stop offset="1" stop-color="#273182"/></linearGradient><linearGradient id="f" x1="15" x2="5.5" y1="5.5" y2="19.5" gradientUnits="userSpaceOnUse"><stop stop-color="#97A5FF"/><stop offset="1" stop-color="#141E6F"/></linearGradient><linearGradient xlink:href="#g" id="j" x1="-240.47" x2="-240.47" y1="-60.605" y2="-29.026" gradientTransform="matrix(.17157 0 0 .16861 52.902 20.057)" gradientUnits="userSpaceOnUse"/><linearGradient id="g" x1="-240.47" x2="-240.47" y1="-60.605" y2="-29.026" gradientTransform="matrix(.96667 0 0 .95 262.45 67.575)" gradientUnits="userSpaceOnUse"><stop offset="0" stop-color="#4285db"/><stop offset="1" stop-color="#42b9db"/></linearGradient><linearGradient xlink:href="#h" id="k" x1="10.583" x2="225.69" y1="-184.68" y2="-184.68" gradientTransform="translate(12.078 102.06) scale(.11417)" gradientUnits="userSpaceOnUse"/><linearGradient id="h" x1="10.583" x2="225.69" y1="-184.68" y2="-184.68" gradientTransform="translate(18.557 59.5) scale(.11417)" gradientUnits="userSpaceOnUse"><stop offset="0" stop-color="#fafbfb"/><stop offset="1" stop-color="#fafbfb" stop-opacity="0"/></linearGradient><linearGradient xlink:href="#i" id="l" x1="520" x2="410" y1="-620" y2="-620" gradientTransform="translate(12.078 102.06) scale(.0302)" gradientUnits="userSpaceOnUse"/><linearGradient id="i" x1="520" x2="410" y1="-620" y2="-620" gradientTransform="translate(18.557 59.5) scale(.0302)" gradientUnits="userSpaceOnUse"><stop offset="0"/><stop offset="1" stop-opacity="0"/></linearGradient></defs><path d="M6.961 9.387a.86.86 0 0 0-.861.861v5.639a.86.86 0 0 0 .861.861h2.946c-.001 1.473-.213 1.474-1.268 2.108v.424h5.922v-.424c-1.055-.633-1.269-.635-1.27-2.108h2.948a.86.86 0 0 0 .861-.861v-5.639a.86.86 0 0 0-.861-.861Z" style="opacity:.146;fill:#1a1a1a;stroke-width:.360396"/><path fill="#b3b3b3" d="m12 15.083-1.692 1.269c0 1.48-.212 1.48-1.27 2.115L12 18.68l2.961-.212c-1.057-.634-1.269-.634-1.269-2.115Z" style="stroke-width:.360396"/><path fill="#ccc" d="M9.039 18.467v.423h5.923v-.423z" style="stroke-width:.360396"/><rect width="11" height="7.36" x="6.5" y="8.998" fill="#303030" rx=".861" ry=".861" style="stroke-width:.354309"/><g transform="translate(0 -.001)"><rect width="10.294" height="6.745" x="6.853" y="9.306" fill="url(#g)" rx=".71" ry=".698" style="fill:url(#j);stroke-width:.177488"/><path fill="#1a1a1a" d="m10.688 15.41 2.573-2.787 2.144 2.787z"/><path fill="#e6e6e6" d="M10.495 13.716 7.112 15.89c.123.101.28.164.453.164h6.623l-3.693-2.337z" opacity=".9"/><path fill="#fafbfb" d="m9.83 16.053.665-2.337 3.693 2.337z"/><path fill="#b0b2b5" d="m13.26 12.409-.857.91v2.734h4.034c.194 0 .369-.076.497-.2z"/><path fill="#fff" d="m13.26 12.408 1.073 3.645h2.104c.194 0 .369-.076.497-.2l-3.673-3.445z"/><path fill="url(#h)" d="m13.287 87.56 3.746-13.172L37.847 87.56z" style="fill:url(#k)" transform="matrix(.17744 0 0 .17744 7.473 .517)"/><path fill="url(#i)" d="M26.578 80.43v7.13h1.208v-6.366z" opacity=".35" style="fill:url(#l)" transform="matrix(.17744 0 0 .17744 7.473 .517)"/></g></svg>
